svgs/vibemusic.svg

<svg xmlns="http://www.w3.org/2000/svg" viewBox="0 0 192 192"><path d="M63.09 174.468c-8.507-3.139-12.792-8.133-13.671-15.93-1.635-14.503 13.481-28.678 30.799-28.88l5.505-.065.077-42.942c.073-40.612.21-42.743 2.529-39.272 4.719 7.066 12.353 13.236 24.952 20.169 28.094 15.459 36.263 31.954 23.72 47.899-3.244 4.124-6.194 5.223-4.888 1.821 1.313-3.423-2.187-13.686-6.359-18.645-4.453-5.291-17.581-16.009-19.609-16.009-.763 0-1.34 14.021-1.345 32.665-.009 34.763-.926 41.376-6.827 49.195-7.145 9.468-23.563 14.171-34.883 9.994Zm61.488-5.571c-.424-1.104-.586-11.226-.36-22.491l.41-20.483 4.076-.468 4.076-.469-.405 22.49c-.399 22.078-.467 22.499-3.716 22.96-1.82.259-3.657-.434-4.081-1.539Zm12.529-21.687v-14.681h7.341v29.363h-7.341Zm-24.958 0v-11.939l4.038.464c4.004.461 4.037.555 4.037 11.475 0 10.921-.033 11.015-4.037 11.476l-4.038.464Zm-89.228-33.115c-2.63-1.843-3.263-3.706-3.263-9.611 0-6.527.46-7.59 4.217-9.746 4.012-2.303 4.254-3.031 4.975-14.98.897-14.877 4.651-25.744 12.845-37.187 28.064-39.19 91.822-34.088 113.706 9.099 4.497 8.874 8.069 23.965 8.107 34.247.014 3.835.561 6.973 1.216 6.973 3.531 0 7.618 6.332 7.618 11.802 0 8.044-3.891 11.688-12.479 11.688h-6.607V98.963c0-27.579-4.056-41.754-15.605-54.538-10.945-12.114-23.925-17.6-41.646-17.6-20.38 0-35.52 7.279-45.917 22.076-8.793 12.515-11.344 23.104-11.344 47.08v20.399h-6.28c-3.454 0-7.748-1.028-9.543-2.285Zm34.908-20.471v-22.95l4.037.464 4.038.465v44.043l-4.038.465-4.037.464Zm12.412 13.567c-.434-1.13-.596-7.948-.361-15.151.421-12.877.49-13.097 4.098-13.097h3.671v14.681c0 14.116-.128 14.7-3.31 15.152-1.846.262-3.659-.439-4.098-1.585ZM46.084 93.624c0-10.766.082-11.01 3.67-11.01 3.589 0 3.671.244 3.671 11.01 0 10.767-.082 11.011-3.671 11.011-3.588 0-3.67-.244-3.67-11.011Z"/></svg>

<svg
    xmlns="http://www.w3.org/2000/svg"
    viewBox="0 0 192 192"
    id="vector">
    <path
        id="path"
        d="M 63.09 174.468 C 54.583 171.329 50.298 166.335 49.419 158.538 C 47.784 144.035 62.9 129.86 80.218 129.658 L 85.723 129.593 L 85.8 86.651 C 85.873 46.039 86.01 43.908 88.329 47.379 C 93.048 54.445 100.682 60.615 113.281 67.548 C 141.375 83.007 149.544 99.502 137.001 115.447 C 133.757 119.571 130.807 120.67 132.113 117.268 C 133.426 113.845 129.926 103.582 125.754 98.623 C 121.301 93.332 108.173 82.614 106.145 82.614 C 105.382 82.614 104.805 96.635 104.8 115.279 C 104.791 150.042 103.874 156.655 97.973 164.474 C 90.828 173.942 74.41 178.645 63.09 174.468 Z M 124.578 168.897 C 124.154 167.793 123.992 157.671 124.218 146.406 L 124.628 125.923 L 128.704 125.455 L 132.78 124.986 L 132.375 147.476 C 131.976 169.554 131.908 169.975 128.659 170.436 C 126.839 170.695 125.002 170.002 124.578 168.897 Z M 137.107 147.21 L 137.107 132.529 L 144.448 132.529 L 144.448 161.892 L 137.107 161.892 Z M 112.149 147.21 L 112.149 135.271 L 116.187 135.735 C 120.191 136.196 120.224 136.29 120.224 147.21 C 120.224 158.131 120.191 158.225 116.187 158.686 L 112.149 159.15 Z M 22.921 114.095 C 20.291 112.252 19.658 110.389 19.658 104.484 C 19.658 97.957 20.118 96.894 23.875 94.738 C 27.887 92.435 28.129 91.707 28.85 79.758 C 29.747 64.881 33.501 54.014 41.695 42.571 C 69.759 3.381 133.517 8.483 155.401 51.67 C 159.898 60.544 163.47 75.635 163.508 85.917 C 163.522 89.752 164.069 92.89 164.724 92.89 C 168.255 92.89 172.342 99.222 172.342 104.692 C 172.342 112.736 168.451 116.38 159.863 116.38 L 153.256 116.38 L 153.256 98.963 C 153.256 71.384 149.2 57.209 137.651 44.425 C 126.706 32.311 113.726 26.825 96.005 26.825 C 75.625 26.825 60.485 34.104 50.088 48.901 C 41.295 61.416 38.744 72.005 38.744 95.981 L 38.744 116.38 L 32.464 116.38 C 29.01 116.38 24.716 115.352 22.921 114.095 Z M 57.829 93.624 L 57.829 70.674 L 61.866 71.138 L 65.904 71.603 L 65.904 115.646 L 61.866 116.111 L 57.829 116.575 Z M 70.241 107.191 C 69.807 106.061 69.645 99.243 69.88 92.04 C 70.301 79.163 70.37 78.943 73.978 78.943 L 77.649 78.943 L 77.649 93.624 C 77.649 107.74 77.521 108.324 74.339 108.776 C 72.493 109.038 70.68 108.337 70.241 107.191 Z M 46.084 93.624 C 46.084 82.858 46.166 82.614 49.754 82.614 C 53.343 82.614 53.425 82.858 53.425 93.624 C 53.425 104.391 53.343 104.635 49.754 104.635 C 46.166 104.635 46.084 104.391 46.084 93.624 Z"
        fill="#000000"
        stroke-width="12"/>
</svg>
